X:438
T:The Legend
C:?
N:Transcribed by Mike Stangeland
R:bluegrass
L:1/8
Q:1/4=233
M:4/4
K:F
z2 F2 E2 _E2 |: "Dm"D2 dc A_A FD | GA df d2 GF | D2 dc A_A FD | "Am"GA ea [e2A2] A,C | 
DF dc A_A FD |1 G"Dm"A df d2 F_A | "C"Ac dc "Am"Ad cA | "G"_Ac =A_A "F"F=A _AF :|2 G"Dm"A df A2 Ac | 
"C"dc Ad "Am"cA _Ac | "G"A_A FE "Dm"D4 |: "Dm"D2 F2 G2 AG | F2 A2 "F"c2 fe | dA cd AF GA | 
"Am"cA Gc AG FD | "C"EF GA cd ed | "A"A2 _d2 e2 =df | "Gm"ag fa ed cB |1 A"Dm"G FE D2 AG :|2 A"Dm"G FE D4 | 


